X: 8
T: The Lisnagun
R: jig
M: 6/8
L: 1/8
K: Dmaj
dBA d3 | efa f3 | efa fed | edB dBA |
dBA d3 | efa f3 | efa fed|1 edB d3 :|2 edB dea ||
|: a2 f fed | efa f3 | efa fed | edB dBA |
a2 f fed | efa f3 | efa fed | edB d3 |
a2 f fed | efa f3 | efa fed | edB dBA |
dBA d3 | efa f3 | efa efa | efa efa | d3 |


Tune 3842	Setting 22930

